src/assets/images/near-logo.svg

<?xml version="1.0" encoding="UTF-8"?>
<svg width="84" height="22" viewBox="0 0 84 22" xmlns="http://www.w3.org/2000/svg">
<path d="m41.851 4.595v12.832c3e-4 0.0258-0.0045 0.0514-0.0142 0.0752-0.0097 0.0239-0.0241 0.0456-0.0424 0.0638-0.0182 0.0182-0.0399 0.0326-0.0638 0.0423-0.0238 0.0097-0.0494 0.0146-0.0752 0.0143h-1.3445c-0.305-0.0025-0.6048-0.0795-0.8732-0.2243-0.2684-0.1449-0.4974-0.3532-0.6668-0.6068l-6.0624-9.3613 0.1955 4.6685v5.3528c4e-4 0.0257-0.0045 0.0513-0.0142 0.0752-0.0097 0.0238-0.0241 0.0455-0.0423 0.0638-0.0182 0.0182-0.0399 0.0326-0.0638 0.0423s-0.0495 0.0145-0.0752 0.0142h-1.7601c-0.0258 3e-4 -0.0513-0.0045-0.0752-0.0142s-0.0456-0.0241-0.0638-0.0423c-0.0182-0.0183-0.0326-0.04-0.0423-0.0638-0.0098-0.0239-0.0146-0.0495-0.0143-0.0752v-12.857c-3e-4 -0.02577 0.0045-0.05135 0.0143-0.07522 0.0097-0.02387 0.0241-0.04556 0.0423-0.06378s0.0399-0.03261 0.0638-0.04233c0.0239-0.00971 0.0494-0.01454 0.0752-0.01421h1.32c0.3051 0.00243 0.6049 0.07943 0.8733 0.22428s0.4973 0.35315 0.6668 0.60675l6.0624 9.3368-0.1955-4.6684v-5.3039c-4e-4 -0.02577 0.0045-0.05135 0.0142-0.07522s0.0241-0.04556 0.0423-0.06378 0.0399-0.03261 0.0638-0.04233c0.0239-0.00971 0.0494-0.01454 0.0752-0.01421h1.7601c0.1466 0 0.22 0.07333 0.22 0.19554z" fill="#fff"/>
<path d="m59.89 17.598h-1.8578c-0.0294 2e-4 -0.0584-0.0066-0.0846-0.0201-0.0261-0.0134-0.0485-0.033-0.0654-0.0571-0.0168-0.0241-0.0276-0.0519-0.0313-0.081-0.0036-0.0292-2e-4 -0.0588 0.0101-0.0863l4.938-12.783c0.0217-0.04777 0.0558-0.08885 0.0988-0.11894 0.043-0.0301 0.0933-0.0481 0.1456-0.05215h2.3468c0.0539-0.00247 0.1071 0.01298 0.1513 0.04393 0.0443 0.03095 0.077 0.07566 0.0931 0.12716l4.9624 12.783c0.0103 0.0275 0.0138 0.0571 0.0101 0.0863-0.0037 0.0291-0.0144 0.0569-0.0313 0.081-0.0168 0.0241-0.0393 0.0437-0.0654 0.0571-0.0261 0.0135-0.0551 0.0203-0.0845 0.0201h-1.8578c-0.0377-4e-4 -0.0743-0.0123-0.1049-0.0342-0.0306-0.0218-0.0537-0.0526-0.0663-0.0881l-3.9845-10.51c-0.015-0.03276-0.0392-0.06052-0.0695-0.07999-0.0303-0.01946-0.0656-0.02981-0.1017-0.02981-0.036 0-0.0713 0.01035-0.1016 0.02981-0.0303 0.01947-0.0544 0.04723-0.0695 0.07999l-3.9845 10.51c-0.0201 0.0349-0.0484 0.0643-0.0825 0.0857-0.0341 0.0213-0.073 0.0338-0.1131 0.0366z" fill="#fff"/>
<path d="m83.551 17.305-3.7157-4.7418c2.1023-0.391 3.3246-1.8087 3.3246-3.984 0-2.4931-1.6134-4.1796-4.498-4.1796h-5.1823c-0.0712 6.4e-4 -0.1392 0.02917-0.1895 0.07946-0.0503 0.05028-0.0788 0.1183-0.0794 0.18941-1e-3 0.23137 0.0438 0.46065 0.132 0.6746 0.0881 0.21395 0.2177 0.40833 0.3813 0.57194s0.358 0.2932 0.572 0.3813c0.214 0.08809 0.4433 0.13295 0.6747 0.13198h3.4957c1.7356 0 2.5667 0.87991 2.5667 2.1753 0 1.2954-0.8067 2.1754-2.5667 2.1754h-4.938c-0.0711 6e-4 -0.1391 0.0291-0.1894 0.0794s-0.0788 0.1183-0.0795 0.1894v6.355c-3e-4 0.0257 0.0045 0.0513 0.0143 0.0752 0.0097 0.0238 0.0241 0.0455 0.0423 0.0638 0.0182 0.0182 0.0399 0.0326 0.0638 0.0423s0.0494 0.0145 0.0752 0.0142h1.7601c0.0257 3e-4 0.0513-0.0045 0.0752-0.0142s0.0456-0.0241 0.0638-0.0423c0.0182-0.0183 0.0326-0.04 0.0423-0.0638 0.0097-0.0239 0.0146-0.0495 0.0142-0.0752v-4.7173h2.029l3.2267 4.204c0.1707 0.226 0.3927 0.4082 0.6478 0.5315 0.255 0.1233 0.5358 0.184 0.819 0.1773h1.3445c0.0977 0 0.1711-0.1711 0.0733-0.2933z" fill="#fff"/>
<path d="m54.319 4.3989h-8.1892c-0.0326-0.00216-0.0654 0.00268-0.096 0.0142-0.0307 0.01152-0.0585 0.02945-0.0816 0.05259-0.0232 0.02314-0.0411 0.05096-0.0526 0.0816-0.0115 0.03063-0.0164 0.06337-0.0142 0.09603 0.0025 0.47242 0.1914 0.92477 0.5255 1.2588s0.7865 0.52287 1.259 0.52544h6.6491c0.0257 3.2e-4 0.0513-0.00451 0.0752-0.01422s0.0456-0.0241 0.0638-0.04232c0.0182-0.01823 0.0326-0.03991 0.0423-0.06379 0.0097-0.02387 0.0146-0.04944 0.0142-0.07521v-1.6621c-0.0083-0.0465-0.0321-0.08878-0.0677-0.11988-0.0355-0.0311-0.0806-0.04917-0.1278-0.05121zm0 11.17h-6.1113c-0.0258 4e-4 -0.0514-0.0045-0.0753-0.0142-0.0238-0.0097-0.0455-0.0241-0.0638-0.0423-0.0182-0.0182-0.0326-0.0399-0.0423-0.0638s-0.0145-0.0494-0.0142-0.0752v-3.2997c-3e-4 -0.0257 0.0045-0.0513 0.0142-0.0752s0.0241-0.0455 0.0423-0.0638c0.0183-0.0182 0.04-0.0326 0.0638-0.0423 0.0239-0.0097 0.0495-0.0145 0.0753-0.0142h5.6468c0.0258 3e-4 0.0514-0.0045 0.0752-0.0142 0.0239-0.0097 0.0456-0.0241 0.0638-0.0423 0.0183-0.0183 0.0326-0.04 0.0424-0.0638 0.0097-0.0239 0.0145-0.0495 0.0142-0.0752v-1.6621c3e-4 -0.02577-0.0045-0.05134-0.0142-0.07521-0.0098-0.02388-0.0241-0.04556-0.0424-0.06379-0.0182-0.01822-0.0399-0.03261-0.0638-0.04232-0.0238-0.00971-0.0494-0.01455-0.0752-0.01422h-7.7002c-0.0712 6.4e-4 -0.1392 0.02917-0.1895 0.07946-0.0503 0.05028-0.0788 0.11828-0.0794 0.18938v7.2104c6e-4 0.0711 0.0291 0.1391 0.0794 0.1894s0.1183 0.0788 0.1895 0.0795h8.1647c0.0257 3e-4 0.0513-0.0045 0.0752-0.0142s0.0456-0.0241 0.0638-0.0424c0.0182-0.0182 0.0326-0.0399 0.0423-0.0637 0.0097-0.0239 0.0146-0.0495 0.0142-0.0753v-1.662c-0.0135-0.0416-0.0396-0.078-0.0746-0.1042-0.035-0.0263-0.0772-0.0411-0.1209-0.0425z" fill="#fff"/>
<path d="m17.65 1.1246-4.5957 6.8193c-0.0665 0.09903-0.0945 0.21895-0.0788 0.33718 0.0158 0.11823 0.0743 0.22661 0.1645 0.30473 0.0901 0.07812 0.2057 0.12059 0.325 0.11941s0.234-0.04594 0.3226-0.12583l4.5224-3.9352c0.0263-0.02377 0.0591-0.03906 0.0942-0.04386s0.0709 0.00111 0.1026 0.01696c0.0317 0.01584 0.0578 0.04089 0.0751 0.07185 0.0172 0.03097 0.0247 0.06642 0.0214 0.1017v12.294c-5e-4 0.0366-0.0119 0.0723-0.0329 0.1024-0.0209 0.03-0.0504 0.0531-0.0846 0.0663-0.0342 0.0131-0.0716 0.0157-0.1073 0.0075-0.0357-0.0083-0.0681-0.0271-0.093-0.054l-13.689-16.376c-0.21556-0.26406-0.48804-0.47597-0.79706-0.61987-0.30902-0.14391-0.64658-0.21609-0.98744-0.21115h-0.48891c-0.61855 0.0051635-1.2099 0.25481-1.645 0.69443-0.4351 0.43962-0.67857 1.0335-0.67726 1.652v17.305c-4.2738e-4 0.512 0.16666 1.0102 0.47579 1.4184s0.74331 0.7041 1.2363 0.8426c0.49302 0.1384 1.0178 0.1119 1.4943-0.0757s0.87856-0.5258 1.1448-0.9632l4.5957-6.8193c0.0665-0.099 0.09449-0.219 0.07871-0.3372s-0.07426-0.2266-0.16441-0.3047-0.20575-0.1206-0.32504-0.1194-0.23403 0.0459-0.32262 0.1258l-4.5224 3.9107c-0.02628 0.0238-0.05912 0.0391-0.09423 0.0439-0.03512 0.0048-0.07086-0.0011-0.10256-0.017-0.03169-0.0158-0.05787-0.0409-0.0751-0.0718-0.01722-0.031-0.0247-0.0664-0.02145-0.1017v-12.27c4.8e-4 -0.03664 0.01194-0.0723 0.03288-0.10237 0.02095-0.03007 0.05042-0.05317 0.08463-0.06632 0.03421-0.01316 0.07157-0.01576 0.10727-0.00747 0.0357 0.00828 0.0681 0.02707 0.09301 0.05395l13.689 16.376c0.2173 0.2621 0.4901 0.4726 0.7987 0.6163 0.3087 0.1437 0.6454 0.2171 0.9858 0.2147h0.4889c0.6224 0 1.2193-0.2472 1.6594-0.6872 0.4401-0.4401 0.6874-1.0369 0.6874-1.6592v-17.305c-0.0096-0.62355-0.2633-1.2185-0.7066-1.6572-0.4433-0.43868-1.0409-0.68613-1.6646-0.68926-0.4024 7.3243e-4 -0.7978 0.10444-1.1487 0.30125s-0.6455 0.48016-0.8558 0.82308z" fill="#fff"/>
</svg>

<svg width="84" height="22" viewBox="0 0 84 22" fill="none" xmlns="http://www.w3.org/2000/svg">
<path d="M41.8511 4.59497V17.427C41.8514 17.4528 41.8466 17.4784 41.8369 17.5022C41.8272 17.5261 41.8128 17.5478 41.7945 17.566C41.7763 17.5842 41.7546 17.5986 41.7307 17.6083C41.7069 17.618 41.6813 17.6229 41.6555 17.6226H40.311C40.006 17.6201 39.7062 17.5431 39.4378 17.3983C39.1694 17.2534 38.9404 17.0451 38.771 16.7915L32.7086 7.43024L32.9041 12.0987V17.4515C32.9045 17.4772 32.8996 17.5028 32.8899 17.5267C32.8802 17.5505 32.8658 17.5722 32.8476 17.5905C32.8294 17.6087 32.8077 17.6231 32.7838 17.6328C32.7599 17.6425 32.7343 17.6473 32.7086 17.647H30.9485C30.9227 17.6473 30.8972 17.6425 30.8733 17.6328C30.8494 17.6231 30.8277 17.6087 30.8095 17.5905C30.7913 17.5722 30.7769 17.5505 30.7672 17.5267C30.7574 17.5028 30.7526 17.4772 30.7529 17.4515V4.59497C30.7526 4.5692 30.7574 4.54362 30.7672 4.51975C30.7769 4.49588 30.7913 4.47419 30.8095 4.45597C30.8277 4.43775 30.8494 4.42336 30.8733 4.41364C30.8972 4.40393 30.9227 4.3991 30.9485 4.39943H32.2685C32.5736 4.40186 32.8734 4.47886 33.1418 4.62371C33.4102 4.76856 33.6391 4.97686 33.8086 5.23046L39.871 14.5673L39.6755 9.89888V4.59497C39.6751 4.5692 39.68 4.54362 39.6897 4.51975C39.6994 4.49588 39.7138 4.47419 39.732 4.45597C39.7502 4.43775 39.7719 4.42336 39.7958 4.41364C39.8197 4.40393 39.8452 4.3991 39.871 4.39943H41.6311C41.7777 4.39943 41.8511 4.47276 41.8511 4.59497Z" fill="white"/>
<path d="M59.8901 17.5984H58.0323C58.0029 17.5986 57.9739 17.5918 57.9477 17.5783C57.9216 17.5649 57.8992 17.5453 57.8823 17.5212C57.8655 17.4971 57.8547 17.4693 57.851 17.4402C57.8474 17.411 57.8508 17.3814 57.8611 17.3539L62.7991 4.57076C62.8208 4.52299 62.8549 4.48191 62.8979 4.45182C62.9409 4.42172 62.9912 4.40372 63.0435 4.39967H65.3903C65.4442 4.3972 65.4974 4.41265 65.5416 4.4436C65.5859 4.47455 65.6186 4.51926 65.6347 4.57076L70.5971 17.3539C70.6074 17.3814 70.6109 17.411 70.6072 17.4402C70.6035 17.4693 70.5928 17.4971 70.5759 17.5212C70.5591 17.5453 70.5366 17.5649 70.5105 17.5783C70.4844 17.5918 70.4554 17.5986 70.426 17.5984H68.5682C68.5305 17.598 68.4939 17.5861 68.4633 17.5642C68.4327 17.5424 68.4096 17.5116 68.397 17.4761L64.4125 6.96608C64.3975 6.93332 64.3733 6.90556 64.343 6.88609C64.3127 6.86663 64.2774 6.85628 64.2413 6.85628C64.2053 6.85628 64.17 6.86663 64.1397 6.88609C64.1094 6.90556 64.0853 6.93332 64.0702 6.96608L60.0857 17.4761C60.0656 17.511 60.0373 17.5404 60.0032 17.5618C59.9691 17.5831 59.9302 17.5956 59.8901 17.5984Z" fill="white"/>
<path d="M83.5513 17.3048L79.8356 12.563C81.9379 12.172 83.1602 10.7543 83.1602 8.579C83.1602 6.08591 81.5468 4.39941 78.6622 4.39941H73.4799C73.4087 4.40005 73.3407 4.42858 73.2904 4.47887C73.2401 4.52915 73.2116 4.59717 73.211 4.66828C73.21 4.89965 73.2548 5.12893 73.343 5.34288C73.4311 5.55683 73.5607 5.75121 73.7243 5.91482C73.8879 6.07843 74.0823 6.20802 74.2963 6.29612C74.5103 6.38421 74.7396 6.42907 74.971 6.4281H78.4667C80.2023 6.4281 81.0334 7.30801 81.0334 8.60344C81.0334 9.89886 80.2267 10.7788 78.4667 10.7788H73.5287C73.4576 10.7794 73.3896 10.8079 73.3393 10.8582C73.289 10.9085 73.2605 10.9765 73.2598 11.0476V17.4026C73.2595 17.4283 73.2643 17.4539 73.2741 17.4778C73.2838 17.5016 73.2982 17.5233 73.3164 17.5416C73.3346 17.5598 73.3563 17.5742 73.3802 17.5839C73.4041 17.5936 73.4296 17.5984 73.4554 17.5981H75.2155C75.2412 17.5984 75.2668 17.5936 75.2907 17.5839C75.3146 17.5742 75.3363 17.5598 75.3545 17.5416C75.3727 17.5233 75.3871 17.5016 75.3968 17.4778C75.4065 17.4539 75.4114 17.4283 75.411 17.4026V12.6853H77.44L80.6667 16.8893C80.8374 17.1153 81.0594 17.2975 81.3145 17.4208C81.5695 17.5441 81.8503 17.6048 82.1335 17.5981H83.478C83.5757 17.5981 83.6491 17.427 83.5513 17.3048Z" fill="white"/>
<path d="M54.3189 4.39894H46.1297C46.0971 4.39678 46.0643 4.40162 46.0337 4.41314C46.003 4.42466 45.9752 4.44259 45.9521 4.46573C45.9289 4.48887 45.911 4.51669 45.8995 4.54733C45.888 4.57796 45.8831 4.6107 45.8853 4.64336C45.8878 5.11578 46.0767 5.56813 46.4108 5.90219C46.7449 6.23625 47.1973 6.42506 47.6698 6.42763H54.3189C54.3446 6.42795 54.3702 6.42312 54.3941 6.41341C54.418 6.4037 54.4397 6.38931 54.4579 6.37109C54.4761 6.35286 54.4905 6.33118 54.5002 6.3073C54.5099 6.28343 54.5148 6.25786 54.5144 6.23209V4.57003C54.5061 4.52353 54.4823 4.48125 54.4467 4.45015C54.4112 4.41905 54.3661 4.40098 54.3189 4.39894ZM54.3189 15.5689H48.2076C48.1818 15.5693 48.1562 15.5644 48.1323 15.5547C48.1085 15.545 48.0868 15.5306 48.0685 15.5124C48.0503 15.4942 48.0359 15.4725 48.0262 15.4486C48.0165 15.4247 48.0117 15.3992 48.012 15.3734V12.0737C48.0117 12.048 48.0165 12.0224 48.0262 11.9985C48.0359 11.9746 48.0503 11.953 48.0685 11.9347C48.0868 11.9165 48.1085 11.9021 48.1323 11.8924C48.1562 11.8827 48.1818 11.8779 48.2076 11.8782H53.8544C53.8802 11.8785 53.9058 11.8737 53.9296 11.864C53.9535 11.8543 53.9752 11.8399 53.9934 11.8217C54.0117 11.8034 54.026 11.7817 54.0358 11.7579C54.0455 11.734 54.0503 11.7084 54.05 11.6827V10.0206C54.0503 9.99483 54.0455 9.96926 54.0358 9.94539C54.026 9.92151 54.0117 9.89983 53.9934 9.8816C53.9752 9.86338 53.9535 9.84899 53.9296 9.83928C53.9058 9.82957 53.8802 9.82473 53.8544 9.82506H46.1542C46.083 9.8257 46.015 9.85423 45.9647 9.90452C45.9144 9.9548 45.8859 10.0228 45.8853 10.0939V17.3043C45.8859 17.3754 45.9144 17.4434 45.9647 17.4937C46.015 17.544 46.083 17.5725 46.1542 17.5732H54.3189C54.3446 17.5735 54.3702 17.5687 54.3941 17.559C54.418 17.5493 54.4397 17.5349 54.4579 17.5166C54.4761 17.4984 54.4905 17.4767 54.5002 17.4529C54.5099 17.429 54.5148 17.4034 54.5144 17.3776V15.7156C54.5009 15.674 54.4748 15.6376 54.4398 15.6114C54.4048 15.5851 54.3626 15.5703 54.3189 15.5689Z" fill="white"/>
<path d="M17.6495 1.12457L13.0538 7.94389C12.9873 8.04292 12.9593 8.16284 12.975 8.28107C12.9908 8.3993 13.0493 8.50768 13.1395 8.5858C13.2296 8.66392 13.3452 8.70639 13.4645 8.70521C13.5838 8.70403 13.6985 8.65927 13.7871 8.57938L18.3095 4.64422C18.3358 4.62045 18.3686 4.60516 18.4037 4.60036C18.4388 4.59556 18.4746 4.60147 18.5063 4.61732C18.538 4.63316 18.5641 4.65821 18.5814 4.68917C18.5986 4.72014 18.6061 4.75559 18.6028 4.79087V17.0852C18.6023 17.1218 18.5909 17.1575 18.5699 17.1876C18.549 17.2176 18.5195 17.2407 18.4853 17.2539C18.4511 17.267 18.4137 17.2696 18.378 17.2614C18.3423 17.2531 18.3099 17.2343 18.285 17.2074L4.59571 0.831266C4.38015 0.567209 4.10767 0.3553 3.79865 0.211392C3.48963 0.067483 3.15207 -0.0047009 2.81121 0.000237328H2.3223C1.70375 0.00540078 1.11237 0.255047 0.677266 0.694669C0.242165 1.13429 -0.00130766 1.72818 5.28261e-06 2.34667V19.6516C-0.000422099 20.1636 0.166669 20.6618 0.475791 21.07C0.784913 21.4782 1.2191 21.7741 1.71211 21.9126C2.20513 22.051 2.72991 22.0245 3.20641 21.8369C3.68291 21.6493 4.08497 21.3111 4.35126 20.8737L8.94696 14.0544C9.01346 13.9554 9.04145 13.8354 9.02567 13.7172C9.00989 13.599 8.95141 13.4906 8.86126 13.4125C8.77111 13.3344 8.65551 13.2919 8.53622 13.2931C8.41693 13.2943 8.30219 13.339 8.2136 13.4189L3.69123 17.3296C3.66495 17.3534 3.63211 17.3687 3.597 17.3735C3.56188 17.3783 3.52614 17.3724 3.49444 17.3565C3.46275 17.3407 3.43657 17.3156 3.41934 17.2847C3.40212 17.2537 3.39464 17.2183 3.39789 17.183V4.91308C3.39837 4.87644 3.40983 4.84078 3.43077 4.81071C3.45172 4.78064 3.48119 4.75754 3.5154 4.74439C3.54961 4.73123 3.58697 4.72863 3.62267 4.73692C3.65837 4.7452 3.69077 4.76399 3.71568 4.79087L17.405 21.167C17.6223 21.4291 17.8951 21.6396 18.2037 21.7833C18.5124 21.927 18.8491 22.0004 19.1895 21.998H19.6784C20.3008 21.998 20.8977 21.7508 21.3378 21.3108C21.7779 20.8707 22.0252 20.2739 22.0252 19.6516V2.34667C22.0156 1.72312 21.7619 1.12817 21.3186 0.689493C20.8753 0.250814 20.2777 0.00336172 19.654 0.000237328C19.2516 0.000969759 18.8562 0.104681 18.5053 0.301492C18.1544 0.498303 17.8598 0.781657 17.6495 1.12457Z" fill="white"/>
</svg>
